X:1
T:Title
%%score { ( 1 3 ) | ( 2 4 ) }
L:1/8
M:4/4
K:Bb
V:1 treble nm="Grand Piano"
V:3 treble 
V:2 bass 
V:4 bass 
V:1
 z4 z2[Q:1/4=100] [B,D]>[CE] | [DF]2 [Fd]2 [Fd]2 [DB]>[Dc] | [EB]2 [EA]2 [EA]2 A>B | c2 =B2 c2 F2 | %4
[M:3/4] d6 |[M:1/4] [FB]>[FA] |[M:4/4] [FA]2 [EG]2 [Ge]2 [EG]>[EA] | %7
 [EG]2 [DF]2 [Fd]2 [DFB]>[DFB] | [CFA]3 [DFB] [C=EA]2 [B,CG]2 |[M:7/8] F2- [DF-]2 [EF]3 | %10
[M:1/4] F>F |[M:4/4] d6 z2 | (3[EB][EA][EA] [EA]>[EA] [EA]2 A>B | c2 =B2 c2 e2 | [Fd]6 B>A | %15
 G6 z2 | (3[DF][DF][DF] [FB]>c d2 d>d | [Ge]2 [Gc]2 [FB]2 [EA]2 |[M:3/4] [DB]6 |] %19
V:2
 z4 z2 [B,,F,]>[B,,F,] | [B,,B,]2 [B,,B,]2 [B,,B,]2 [B,,F,]>[B,,F,] | %2
 [C,F,]2 [C,F,]2 [C,F,]2 [F,E]>[F,G,E] | [F,A,E]2 [F,_A,E]2 [F,=A,E]2 [F,A,]2 |[M:3/4] [B,F]6 | %5
[M:1/4] [D,B,]>[D,B,] |[M:4/4] [E,B,]2 [E,B,]2 [E,B,]2 [E,B,]>[E,B,] | %7
 [B,,B,]2 [B,,B,]2 [B,,B,]2 B,,>B,, | C,3 C, C,2 C,2 |[M:7/8] z2 B,2 C3 |[M:1/4] z2 | %11
[M:4/4] F6 z2 | (3[C,F,][C,F,][C,F,] [C,F,]>[C,F,] [C,F,]2 [F,E]>[F,G,E] | %13
 [F,A,E]2 [F,_A,E]2 [F,=A,E]2 [F,CF]2 | B,2 B,2 B,2[K:treble] D>F | E6[K:bass] z2 | %16
 (3[B,,B,][B,,B,][B,,B,] [D,B,]>[K:treble][F,A,F] [B,F]2 [B,F]>[B,F] | %17
 [E,B,]2 [E,E]2 [F,D]2 [F,C]2 |[M:3/4] [B,,B,]6 |] %19
V:3
 x8 | x8 | x8 | x8 |[M:3/4] x6 |[M:1/4] x2 |[M:4/4] x8 | x8 | x8 |[M:7/8] [A,C]2 z z z z2 | %10
[M:1/4] x2 |[M:4/4] z2 B,>B, B,2 [DB]>[Dc] | x8 | x8 | x8 | z2 B,>B, B,2 [B,GB]>[B,EG] | x8 | x8 | %18
[M:3/4] x6 |] %19
V:4
 x8 | x8 | x8 | x8 |[M:3/4] x6 |[M:1/4] x2 |[M:4/4] x8 | x8 | x8 |[M:7/8] F,-F,-F,- F,- F,3 | %10
[M:1/4] x2 |[M:4/4] z2 B,,>B,, B,,2 [B,,F,]>[B,,F,] | x8 | x8 | x6[K:treble] x2 | %15
 z2[K:bass] E,>E, E,2 E,>E, | x7/2[K:treble] x9/2 | x8 |[M:3/4] x6 |] %19

